src/assets/images/prototype/produits-armoire/5-tablettes.svg

<svg width="382" height="442" viewBox="0 0 382 442" fill="none" xmlns="http://www.w3.org/2000/svg">
<path d="M225.025 51.5849C190.361 52.6853 65.2317 60.7553 7 64.6526C18.0044 77.7204 214.708 79.0959 245.658 80.4715C276.608 81.847 363.956 73.5937 371.521 64.6526C379.087 55.7116 268.355 50.2094 225.025 51.5849Z" fill="white" stroke="#81EC40" stroke-width="13" stroke-linejoin="round"/>
<path d="M321.831 27.1666C327.352 24.2912 338.364 25.206 343.18 26.0227L355.399 36.9993C360.891 41.9326 361.2 49.1734 360.667 52.1771C359.186 62.4538 347.331 76.7063 332.715 93.8153C319.326 109.488 299.49 133.432 290.424 134.977C283.918 137.616 268.609 125.477 267.066 124.382C267.391 124.021 265.318 123.057 260.169 118.432C253.169 112.144 255.133 103.87 259.026 97.0834C262.918 90.297 301.176 46.072 304.097 42.82C307.019 39.5681 314.93 30.7607 321.831 27.1666Z" fill="white" stroke="#81EC40" stroke-width="13" stroke-linejoin="round"/>
<path d="M306.148 13.0689C311.669 10.1936 322.681 11.1083 327.497 11.9251L339.716 22.9016C345.208 27.835 345.516 35.0757 344.984 38.0795C343.503 48.3562 331.647 62.6086 317.031 79.7176C303.642 95.3908 283.806 119.335 274.74 120.879C268.234 123.519 252.925 111.379 251.382 110.285C251.707 109.923 249.635 108.96 244.486 104.334C237.486 98.0463 239.449 89.772 243.342 82.9857C247.235 76.1993 285.493 31.9743 288.414 28.7224C291.335 25.4704 299.247 16.6631 306.148 13.0689Z" fill="white" stroke="#81EC40" stroke-width="13" stroke-linejoin="round"/>
<path d="M135.599 88.8168C129.864 91.2369 123.548 100.304 121.107 104.535L121.773 120.947C122.072 128.323 127.454 133.177 130.108 134.682C138.969 140.093 157.508 140.046 180.007 139.694C200.618 139.371 231.711 139.355 238.681 133.355C244.862 130.026 245.27 110.493 245.411 108.606C244.926 108.626 245.504 106.415 245.224 99.499C244.842 90.097 237.216 86.3345 229.506 85.0068C221.796 83.679 163.333 84.9572 158.965 85.1344C154.597 85.3116 142.768 85.7916 135.599 88.8168Z" fill="white" stroke="#81EC40" stroke-width="13" stroke-linejoin="round"/>
<path d="M134.986 73.891C129.251 76.3111 122.935 85.378 120.494 89.6089L121.16 106.021C121.459 113.397 126.841 118.251 129.494 119.756C138.356 125.167 156.894 125.12 179.394 124.768C200.005 124.446 231.097 124.429 238.068 118.429C244.249 115.1 244.657 95.5667 244.798 93.68C244.312 93.6997 244.891 91.4888 244.61 84.5732C244.229 75.1712 236.602 71.4088 228.892 70.081C221.182 68.7532 162.72 70.0314 158.352 70.2087C153.984 70.3859 142.155 70.8658 134.986 73.891Z" fill="white" stroke="#81EC40" stroke-width="13" stroke-linejoin="round"/>
<path d="M134.732 67.7426C128.997 70.1627 122.681 79.2296 120.24 83.4605L120.906 99.8725C121.205 107.249 126.587 112.103 129.24 113.608C138.102 119.019 156.641 118.972 179.14 118.62C199.751 118.297 230.844 118.281 237.814 112.281C243.995 108.952 244.403 89.4183 244.544 87.5316C244.058 87.5513 244.637 85.3404 244.356 78.4248C243.975 69.0228 236.348 65.2603 228.638 63.9325C220.928 62.6047 162.466 63.883 158.098 64.0602C153.73 64.2374 141.901 64.7174 134.732 67.7426Z" fill="white" stroke="#81EC40" stroke-width="13" stroke-linejoin="round"/>
<path d="M375 248.536V63.2773C375 63.2773 346.941 75.5344 215.396 75.5344C119.795 75.5344 7 63.2773 7 63.2773C9.70282 119.914 15.1085 238.797 15.1085 261.239V424.267C57.1062 428.502 151.705 436.441 194.119 434.324C236.532 432.207 325.725 426.737 365.02 424.267C364.397 419.68 363.523 403.201 365.02 373.983C366.892 337.46 375 284 375 248.536Z" fill="white" stroke="#81EC40" stroke-width="13" stroke-linejoin="round"/>
</svg>

<svg width="382" height="442" fill="none" xmlns="http://www.w3.org/2000/svg"><path d="M225.025 51.585C190.361 52.685 65.232 60.755 7 64.653 18.004 77.72 214.708 79.096 245.658 80.472c30.95 1.375 118.298-6.878 125.863-15.82 7.566-8.94-103.166-14.443-146.496-13.067z" fill="#fff" stroke="#81EC40" stroke-width="13" stroke-linejoin="round"/><path d="M321.831 27.167c5.521-2.876 16.533-1.961 21.349-1.144l12.219 10.976c5.492 4.934 5.801 12.174 5.268 15.178-1.481 10.277-13.336 24.53-27.952 41.638-13.389 15.673-33.225 39.617-42.291 41.162-6.506 2.639-21.815-9.5-23.358-10.595.325-.361-1.748-1.325-6.897-5.95-7-6.288-5.036-14.562-1.143-21.349 3.892-6.786 42.15-51.011 45.071-54.263 2.922-3.252 10.833-12.06 17.734-15.653z" fill="#fff" stroke="#81EC40" stroke-width="13" stroke-linejoin="round"/><path d="M306.148 13.069c5.521-2.875 16.533-1.96 21.349-1.144l12.219 10.977c5.492 4.933 5.8 12.174 5.268 15.178-1.481 10.276-13.337 24.529-27.953 41.638-13.389 15.673-33.225 39.617-42.291 41.161-6.506 2.64-21.815-9.5-23.358-10.594.325-.362-1.747-1.325-6.896-5.951-7-6.288-5.037-14.562-1.144-21.348 3.893-6.787 42.151-51.012 45.072-54.264 2.921-3.252 10.833-12.059 17.734-15.653z" fill="#fff" stroke="#81EC40" stroke-width="13" stroke-linejoin="round"/><path d="M135.599 88.817c-5.735 2.42-12.051 11.487-14.492 15.718l.666 16.412c.299 7.376 5.681 12.23 8.335 13.735 8.861 5.411 27.4 5.364 49.899 5.012 20.611-.323 51.704-.339 58.674-6.339 6.181-3.329 6.589-22.862 6.73-24.749-.485.02.093-2.191-.187-9.107-.382-9.402-8.008-13.164-15.718-14.492-7.71-1.328-66.173-.05-70.541.127-4.368.178-16.197.658-23.366 3.683z" fill="#fff" stroke="#81EC40" stroke-width="13" stroke-linejoin="round"/><path d="M134.986 73.891c-5.735 2.42-12.051 11.487-14.492 15.718l.666 16.412c.299 7.376 5.681 12.23 8.334 13.735 8.862 5.411 27.4 5.364 49.9 5.012 20.611-.322 51.703-.339 58.674-6.339 6.181-3.329 6.589-22.862 6.73-24.749-.486.02.093-2.191-.188-9.107-.381-9.402-8.008-13.164-15.718-14.492-7.71-1.328-66.172-.05-70.54.128-4.368.177-16.197.657-23.366 3.682z" fill="#fff" stroke="#81EC40" stroke-width="13" stroke-linejoin="round"/><path d="M134.732 67.743c-5.735 2.42-12.051 11.487-14.492 15.718l.666 16.412c.299 7.376 5.681 12.23 8.334 13.735 8.862 5.411 27.401 5.364 49.9 5.012 20.611-.323 51.704-.339 58.674-6.339 6.181-3.329 6.589-22.863 6.73-24.75-.486.02.093-2.19-.188-9.106-.381-9.402-8.008-13.165-15.718-14.492-7.71-1.328-66.172-.05-70.54.127-4.368.177-16.197.657-23.366 3.683z" fill="#fff" stroke="#81EC40" stroke-width="13" stroke-linejoin="round"/><path d="M375 248.536V63.277s-28.059 12.257-159.604 12.257C119.795 75.534 7 63.277 7 63.277c2.703 56.637 8.108 175.52 8.108 197.962v163.028c41.998 4.235 136.597 12.174 179.011 10.057 42.413-2.117 131.606-7.587 170.901-10.057-.623-4.587-1.497-21.066 0-50.284C366.892 337.46 375 284 375 248.536z" fill="#fff" stroke="#81EC40" stroke-width="13" stroke-linejoin="round"/></svg>
